site/static/img/page-collecte/etape-9.svg

<svg height="158" viewBox="0 0 158 158" width="158" xmlns="http://www.w3.org/2000/svg" xmlns:xlink="http://www.w3.org/1999/xlink"><mask id="a" fill="#fff"><path d="m.62120773 76.9628019c0 42.1647541 34.18130437 76.3453141 76.34531397 76.3453141 42.1647533 0 76.3453143-34.18056 76.3453143-76.3453141 0-42.1640096-34.180561-76.34457002-76.3453143-76.34457002-42.1640096 0-76.34531397 34.18056042-76.34531397 76.34457002" fill="#fff" fill-rule="evenodd"/></mask><mask id="b" fill="#fff"><path d="m.62120773 76.9628019c0 42.1647541 34.18130437 76.3453141 76.34531397 76.3453141 42.1647533 0 76.3453143-34.18056 76.3453143-76.3453141 0-42.1640096-34.180561-76.34457002-76.3453143-76.34457002-42.1640096 0-76.34531397 34.18056042-76.34531397 76.34457002" fill="#fff" fill-rule="evenodd"/></mask><mask id="c" fill="#fff"><path d="m.62120773 76.9628019c0 42.1647541 34.18130437 76.3453141 76.34531397 76.3453141 42.1647533 0 76.3453143-34.18056 76.3453143-76.3453141 0-42.1640096-34.180561-76.34457002-76.3453143-76.34457002-42.1640096 0-76.34531397 34.18056042-76.34531397 76.34457002z" fill="#fff" fill-rule="evenodd"/></mask><g fill="none" fill-rule="evenodd" transform="translate(1 1)"><path d="m153 77.4996273c0 42.2503907-34.249982 76.5003727-76.5003727 76.5003727-42.2496456 0-76.4996273-34.249982-76.4996273-76.5003727 0-42.2496456 34.2499817-76.4996273 76.4996273-76.4996273 42.2503907 0 76.5003727 34.2499817 76.5003727 76.4996273" fill="#fff"/><path d="m117.20568 102.055949 4.844677 33.775101c1.784763 10.970454-11.924213 13.633836-15.318909 3.475044l-8.7638644-31.940493c-4.2018937-17.1654203 15.8181064-19.8741836 19.2380964-5.309652" fill="#f5c7a3" mask="url(#a)"/><path d="m37.3199285 102.055949-4.8454203 33.775101c-1.7840193 10.970454 11.9242126 13.633836 15.3196522 3.475044l8.7631208-31.940493c4.2026376-17.1654203-15.8181063-19.8741836-19.2373527-5.309652" fill="#f5c7a3" mask="url(#b)"/><path d="m67.277913 82.8103382h20.733459v-28.7154203h-20.733459z" fill="#f5c7a3" mask="url(#c)"/><path d="m90.2283768 26.6507043c-.7744638-.8198454-1.694-1.539256-2.7757198-2.1344251-4.8000386-2.637343-11.0597295-1.5489275-15.6417874 1.0571691-1.9104928 1.0861836-5.4569566 3.8566957-6.6309276 8.6254879-.0089275 0-6.1525604 1.079488-1.5608309 11.6407633 6.8905701 9.5383285 22.6141932 14.6329759 28.0079131 1.4187343 2.5659227-6.2887053 3.4973623-15.4252947-1.3986474-20.6077295" fill="#e8364b" mask="url(#c)"/><path d="m64.9685082 47.4445729c-.5914493-.9902125-1.5466956-2.0235748-2.7816715-1.4313816-2.1188019 1.0140193-2.4483768 10.1773913 2.7816715 10.9890531.6130242 0 .577314-8.8769468 0-9.5576715" fill="#f5c7a3" mask="url(#c)"/><path d="m90.7507121 47.4445729c.5921932-.9902125 1.5474396-2.0235748 2.7824154-1.4313816 2.118802 1.0140193 2.4483768 10.1773913-2.7824154 10.9890531-.6122802 0-.5765701-8.8769468 0-9.5576715" fill="#f5c7a3" mask="url(#c)"/><path d="m77.828029 30.1459836c-7.2833817 0-13.2425121 5.9591304-13.2425121 13.2417681v16.3827729c0 7.2833817 5.9591304 13.2425121 13.2425121 13.2425121 7.2826377 0 13.2417681-5.9591304 13.2417681-13.2425121v-16.3827729c0-7.2826377-5.9591304-13.2417681-13.2417681-13.2417681" fill="#f5c7a3" mask="url(#c)"/><path d="m75.0418193 57.0020213c.077372 1.4908985 1.3078841 2.6767729 2.8181256 2.6767729 1.5102416 0 2.7400097-1.1858744 2.8173817-2.6767729z" fill="#fff" mask="url(#c)"/><path d="m75.4304647 57.5228686c.3161836-.0029758.6524541.0796039.9463189.1398647.7238744.1487923 1.4254299.289401 2.1626956.1502802.4969662-.0937391.982773-.2559227 1.4908986-.2767536.3794203-.0163671.9195362.0104155 1.1293333.3898358.5058937.9128405-.3556135 1.7951787-1.3123478 2.1009468-.9470628.3027923-2.0637488.3362705-3.0599131.2358358-.6360869-.0647247-1.3554975-.2276522-1.8338647-.616744-.2581546-.212029-.4381932-.4835749-.5282126-.7804155-.0037198-.0163671-.0081835-.0319903-.0126473-.0491014-.1368889-.5163092.096715-1.1315652.7469372-1.2669662.0870435-.0178551.1778068-.0260386.2708019-.0267826zm12.8735073-23.3246763s1.7535169 21.9185893-1.2729179 25.6889855c-.3124638.327343-.6762609.5215169-1.098087.5475555-.7350338.0468696-1.0988309-.73057-1.3443381-1.2967246-.2797295-.6457585-.5378841-1.2431594-1.0348503-1.7594686-1.4098067-1.4656039-3.6982318-1.9499227-5.6258357-1.9216522-1.9990242.0290145-4.1349372.3325507-5.6570821 1.8160097-.0327343.0312464-.0654686.0639807-.097459.0974589-.0022319.0022319-.0052077.0052078-.0074396.0081836-.4977101.5163092-.7551208 1.1137101-1.0341063 1.7594686-.2455072.5661546-.6100483 1.3435942-1.3450821 1.2967246-.4218261-.0260386-.7856232-.2202125-1.0980869-.5475555-3.0271788-3.7703962-1.2729179-25.6889855-1.2729179-25.6889855l-2.9445991 4.7992947s.0721643 20.7676811.0721643 20.7728888c.0133913 3.7666764 1.501314 7.4916909 4.273314 10.0747247 2.445401 2.2794976 5.7344541 3.3455942 9.028715 3.310628.0052077.0008324.0096715 0 .0148792 0 .0037198 0 .0089275.0008324.0133913 0 3.2950048.0349662 6.584058-1.0311304 9.029459-3.310628 2.772-2.5830338 4.2599227-6.3080483 4.273314-10.0747247 0-.0052077.0729082-20.7728888.0729082-20.7728888z" fill="#e8364b" mask="url(#c)"/><path d="m66.6933082 37.7214444s15.1760676 5.3743769 23.619285.0282706c8.4432174-5.3446184-9.2236328-11.2650628-9.2236328-11.2650628l-7.8361449 2.1254976-4.7985508 4.0092077-1.7609565 3.157372z" fill="#e8364b" mask="url(#c)"/><path d="m71.1861652 43.6709778c-2.8434203 0-5.1571401 2.3137198-5.1571401 5.1571401s2.3137198 5.1563961 5.1571401 5.1563961c2.8426763 0 5.1571401-2.3129758 5.1571401-5.1563961s-2.3144638-5.1571401-5.1571401-5.1571401m0 11.0783285c-3.2652464 0-5.9211884-2.656686-5.9211884-5.9211884s2.655942-5.9204445 5.9211884-5.9204445c3.2645024 0 5.9211884 2.6559421 5.9211884 5.9204445s-2.656686 5.9211884-5.9211884 5.9211884" fill="#fff" mask="url(#c)"/><path d="m84.4691488 43.6709778c-2.8426763 0-5.1571401 2.3137198-5.1571401 5.1571401s2.3144638 5.1563961 5.1571401 5.1563961c2.8434203 0 5.1571401-2.3129758 5.1571401-5.1563961s-2.3137198-5.1571401-5.1571401-5.1571401m0 11.0783285c-3.2645024 0-5.9204445-2.656686-5.9204445-5.9211884s2.6559421-5.9204445 5.9204445-5.9204445c3.2652464 0 5.9211884 2.6559421 5.9211884 5.9204445s-2.655942 5.9211884-5.9211884 5.9211884" fill="#fff" mask="url(#c)"/><path d="m79.452543 46.5291285c-1.1620676-.5029179-2.1961739-.5066377-3.1625797-.0111594l-.3489179-.6799807c1.1672754-.597401 2.4506087-.6011208 3.8150338-.0104155z" fill="#fff" mask="url(#c)"/><path d="m67.4307227 37.9641246s7.5303768 4.4726957 14.7750725 3.1097585c0 0-3.8261933.0409179-5.5313527-1.9484348-.692628-.8912657-9.2437198-1.1613237-9.2437198-1.1613237" fill="#e8364b" mask="url(#c)"/><path d="m113.99876 88.6290831c-3.635739-11.7709565-12.89657-11.857256-12.89657-11.857256l-12.9836132-2.3375266c-7.2171691 5.1028309-14.1918068 4.9369275-20.9469758 0l-12.9836136 2.3375266c-6.0811401 1.3919516-11.6898647 6.2239806-13.821314 11.721855l-5.8222415 16.8447729 16.9608309 5.62286 2.598657 23.868512-2.2177488 25.816203s26.8517971 3.45942 50.140019 0l-1.289285-26.40542.712715-23.219034 18.002377-5.253855s-1.817497-5.366937-5.453237-17.1386379" fill="#9e223e" mask="url(#c)"/><path d="m67.1698899 132.03893-.019343-.02455c-.462-.582522-.3637971-1.438078.2202125-1.900078l5.9256522-4.695884c.5832657-.462744 1.4380773-.363053 1.9000773.219469l.019343.025295c.4627439.582521.3630531 1.437333-.2194686 1.899333l-5.9263962 4.696628c-.5825217.462-1.4380772.362309-1.9000772-.220213" fill="#f5c7a3" mask="url(#c)"/><path d="m38.7380676 130.146367h76.4502124v-47.1611979h-76.4502124z" fill="#e8364b" mask="url(#c)"/><path d="m77.346314 118.1703-.230628.109363-.2298841-.109363c-2.0667246-.987236-3.8090821-2.38514-5.1846666-4.153536.0022318-.07514-.0245508-.156232-.0915073-.243275-1.0928792-1.426174-1.9462029-3.091903-2.5376522-4.950319-1.0021159-3.150676-.9046907-5.752309-.9001932-5.860927l.0178551-.415875.4515845-.046125c2.4141546-.24774 4.4883189-1.147189 5.8036425-1.85916 1.406831-.7618163 2.2876812-1.4894105 2.3263672-1.5206569l.3451981-.2923768.3474299.2938647c.0929952.076628.9463188.7737198 2.3233913 1.519169 1.3145797.711971 3.388 1.61142 5.8036425 1.85916l.4515846.046125.017855.415875c.0044976.108618.1019227 2.710251-.9001932 5.860927-.5907053 1.858416-1.444773 3.524145-2.5376522 4.950319-.0684444.088531-.096715.171111-.095971.249227-1.3748406 1.76542-3.1157101 3.161836-5.1802029 4.147584m11.3922802-8.748241c0-2.869459-.2559227-5.477044-.7655362-7.767701-1.4789952-6.6472942-5.101343-10.6319512-10.857372-10.6319512-5.6898164 0-9.2950531 3.8953816-10.8052947 10.4065312-.5438357 2.344966-.8161256 5.029923-.8161256 7.993121 0 1.302676.0706763 2.577082.2053333 3.811314.0178551-.004464.0357102-.009672.0528213-.014135 0 .011903-.0029759.025294-.0029759.037942 0 1.451468 4.6237199 1.723758 5.7210628 1.06684 1.4001353 1.77658 3.1648116 3.185643 5.2545991 4.183295l.3905797.186734.3920676-.186734c2.080116-.993188 3.8388406-2.395556 5.236744-4.16172 1.0422898.693372 5.4643961.546812 5.7508212-.799758.020831-.095227.0342223-.191198.0342223-.288657.1368889-1.241672.2090531-2.523517.2090531-3.835121" fill="#fff" mask="url(#c)"/><g fill="#f5c7a3"><path d="m74.5942522 126.005106-32.0989565 3.168532c-11.0366667 1.304908-12.7157875 16.016744-2.0146474 16.483951l34.0994686-8.604657c1.2811015-3.623835 1.3056522-7.235768.0141353-11.047826" mask="url(#c)"/><path d="m79.9312821 126.005106 32.0989569 3.168532c11.036666 1.304908 12.715043 16.016744 2.014647 16.483951l-34.0994686-8.604657c-1.2811015-3.623835-1.3056522-7.235768-.0141353-11.047826" mask="url(#c)"/><path d="m81.0095053 131.704743c0 4.46972-3.6230918 8.092812-8.0928116 8.092812-4.4689758 0-8.0920676-3.623092-8.0920676-8.092812s3.6230918-8.092812 8.0920676-8.092812c4.4697198 0 8.0928116 3.623092 8.0928116 8.092812" mask="url(#c)"/><path d="m89.1022425 131.704743c0 4.46972-3.6230918 8.092812-8.0928116 8.092812s-8.0928116-3.623092-8.0928116-8.092812 3.6230918-8.092812 8.0928116-8.092812 8.0928116 3.623092 8.0928116 8.092812" mask="url(#c)"/></g><path d="m2 78.0003724c0-41.9732782 34.0261827-76.0003724 76-76.0003724 41.973073 0 76 34.0270942 76 76.0003724 0 41.9732786-34.026927 75.9996276-76 75.9996276-41.9738173 0-76-34.026349-76-75.9996276z" stroke="#ffd8dd" stroke-width="5"/></g></svg>

<?xml version="1.0" encoding="UTF-8"?>
<svg width="158px" height="158px" viewBox="0 0 158 158" version="1.1" xmlns="http://www.w3.org/2000/svg" xmlns:xlink="http://www.w3.org/1999/xlink">
    <title>Group 33</title>
    <defs>
        <path d="M0.621207729,76.9628019 C0.621207729,119.127556 34.8025121,153.308116 76.9665217,153.308116 L76.9665217,153.308116 C119.131275,153.308116 153.311836,119.127556 153.311836,76.9628019 L153.311836,76.9628019 C153.311836,34.7987923 119.131275,0.618231884 76.9665217,0.618231884 L76.9665217,0.618231884 C34.8025121,0.618231884 0.621207729,34.7987923 0.621207729,76.9628019" id="path-1"></path>
        <path d="M0.621207729,76.9628019 C0.621207729,119.127556 34.8025121,153.308116 76.9665217,153.308116 L76.9665217,153.308116 C119.131275,153.308116 153.311836,119.127556 153.311836,76.9628019 L153.311836,76.9628019 C153.311836,34.7987923 119.131275,0.618231884 76.9665217,0.618231884 L76.9665217,0.618231884 C34.8025121,0.618231884 0.621207729,34.7987923 0.621207729,76.9628019" id="path-3"></path>
        <path d="M0.621207729,76.9628019 C0.621207729,119.127556 34.8025121,153.308116 76.9665217,153.308116 L76.9665217,153.308116 C119.131275,153.308116 153.311836,119.127556 153.311836,76.9628019 L153.311836,76.9628019 C153.311836,34.7987923 119.131275,0.618231884 76.9665217,0.618231884 L76.9665217,0.618231884 C34.8025121,0.618231884 0.621207729,34.7987923 0.621207729,76.9628019 L0.621207729,76.9628019 Z" id="path-5"></path>
    </defs>
    <g id="Page-1" stroke="none" stroke-width="1" fill="none" fill-rule="evenodd">
        <g id="ORGANISER-UNE-COLLECTE" transform="translate(-449.000000, -1746.000000)">
            <g id="Group-33" transform="translate(450.000000, 1747.000000)">
                <path d="M153,77.4996273 C153,119.750018 118.750018,154 76.4996273,154 C34.2499817,154 0,119.750018 0,77.4996273 C0,35.2499817 34.2499817,1 76.4996273,1 C118.750018,1 153,35.2499817 153,77.4996273" id="Fill-1" fill="#FFFFFF"></path>
                <g id="Group-30">
                    <g id="Group-5">
                        <mask id="mask-2" fill="white">
                            <use xlink:href="#path-1"></use>
                        </mask>
                        <g id="Clip-4"></g>
                        <path d="M117.20568,102.055949 L122.050357,135.83105 C123.83512,146.801504 110.126144,149.464886 106.731448,139.306094 L97.9675836,107.365601 C93.7656899,90.2001807 113.78569,87.4914174 117.20568,102.055949" id="Fill-3" fill="#F5C7A3" mask="url(#mask-2)"></path>
                    </g>
                    <g id="Group-8">
                        <mask id="mask-4" fill="white">
                            <use xlink:href="#path-3"></use>
                        </mask>
                        <g id="Clip-7"></g>
                        <path d="M37.3199285,102.055949 L32.4745082,135.83105 C30.6904889,146.801504 44.3987208,149.464886 47.7941604,139.306094 L56.5572812,107.365601 C60.7599188,90.2001807 40.7391749,87.4914174 37.3199285,102.055949" id="Fill-6" fill="#F5C7A3" mask="url(#mask-4)"></path>
                    </g>
                    <mask id="mask-6" fill="white">
                        <use xlink:href="#path-5"></use>
                    </mask>
                    <g id="Clip-10"></g>
                    <polygon id="Fill-9" fill="#F5C7A3" mask="url(#mask-6)" points="67.277913 82.8103382 88.011372 82.8103382 88.011372 54.0949179 67.277913 54.0949179"></polygon>
                    <path d="M90.2283768,26.6507043 C89.453913,25.8308589 88.5343768,25.1114483 87.452657,24.5162792 C82.6526184,21.8789362 76.3929275,22.9673517 71.8108696,25.5734483 C69.9003768,26.6596319 66.353913,29.430144 65.179942,34.1989362 C65.1710145,34.1989362 59.0273816,35.2784242 63.6191111,45.8396995 C70.5096812,55.378028 86.2333043,60.4726754 91.6270242,47.2584338 C94.1929469,40.9697285 95.1243865,31.8331391 90.2283768,26.6507043" id="Fill-11" fill="#E8364B" mask="url(#mask-6)"></path>
                    <path d="M64.9685082,47.4445729 C64.3770589,46.4543604 63.4218126,45.4209981 62.1868367,46.0131913 C60.0680348,47.0272106 59.7384599,56.1905826 64.9685082,57.0022444 C65.5815324,57.0022444 65.5458222,48.1252976 64.9685082,47.4445729" id="Fill-12" fill="#F5C7A3" mask="url(#mask-6)"></path>
                    <path d="M90.7507121,47.4445729 C91.3429053,46.4543604 92.2981517,45.4209981 93.5331275,46.0131913 C95.6519295,47.0272106 95.9815043,56.1905826 90.7507121,57.0022444 C90.1384319,57.0022444 90.174142,48.1252976 90.7507121,47.4445729" id="Fill-13" fill="#F5C7A3" mask="url(#mask-6)"></path>
                    <path d="M77.828029,30.1459836 L77.828029,30.1459836 C70.5446473,30.1459836 64.5855169,36.105114 64.5855169,43.3877517 L64.5855169,59.7705246 C64.5855169,67.0539063 70.5446473,73.0130367 77.828029,73.0130367 C85.1106667,73.0130367 91.0697971,67.0539063 91.0697971,59.7705246 L91.0697971,43.3877517 C91.0697971,36.105114 85.1106667,30.1459836 77.828029,30.1459836" id="Fill-14" fill="#F5C7A3" mask="url(#mask-6)"></path>
                    <path d="M75.0418193,57.0020213 C75.1191913,58.4929198 76.3497034,59.6787942 77.8599449,59.6787942 C79.3701865,59.6787942 80.5999546,58.4929198 80.6773266,57.0020213 L75.0418193,57.0020213 Z" id="Fill-15" fill="#FFFFFF" mask="url(#mask-6)"></path>
                    <path d="M75.4304647,57.5228686 C75.7466483,57.5198928 76.0829188,57.6024725 76.3767836,57.6627333 C77.100658,57.8115256 77.8022135,57.9521343 78.5394792,57.8130135 C79.0364454,57.7192744 79.5222522,57.5570908 80.0303778,57.5362599 C80.4097981,57.5198928 80.949914,57.5466754 81.1597111,57.9260957 C81.6656048,58.8389362 80.8040976,59.7212744 79.8473633,60.0270425 C78.9003005,60.3298348 77.7836145,60.363313 76.7874502,60.2628783 C76.1513633,60.1981536 75.4319527,60.0352261 74.9535855,59.6461343 C74.6954309,59.4341053 74.5153923,59.1625594 74.4253729,58.8657188 C74.4216531,58.8493517 74.4171894,58.8337285 74.4127256,58.8166174 C74.2758367,58.3003082 74.5094406,57.6850522 75.1596628,57.5496512 C75.2467063,57.5317961 75.3374696,57.5236126 75.4304647,57.5228686 L75.4304647,57.5228686 Z M88.303972,34.1981923 C88.303972,34.1981923 90.0574889,56.1167816 87.0310541,59.8871778 C86.7185903,60.2145208 86.3547932,60.4086947 85.9329671,60.4347333 C85.1979333,60.4816029 84.8341362,59.7041633 84.588629,59.1380087 C84.3088995,58.4922502 84.0507449,57.8948493 83.5537787,57.3785401 C82.143972,55.9129362 79.8555469,55.4286174 77.927943,55.4568879 C75.9289188,55.4859024 73.7930058,55.7894386 72.2708609,57.2728976 C72.2381266,57.304144 72.2053923,57.3368783 72.1734019,57.3703565 C72.17117,57.3725884 72.1681942,57.3755643 72.1659623,57.3785401 C71.6682522,57.8948493 71.4108415,58.4922502 71.131856,59.1380087 C70.8863488,59.7041633 70.5218077,60.4816029 69.7867739,60.4347333 C69.3649478,60.4086947 69.0011507,60.2145208 68.688687,59.8871778 C65.6615082,56.1167816 67.4157691,34.1981923 67.4157691,34.1981923 L64.47117,38.997487 C64.47117,38.997487 64.5433343,59.7651681 64.5433343,59.7703758 C64.5567256,63.5370522 66.0446483,67.2620667 68.8166483,69.8451005 C71.2620493,72.1245981 74.5511024,73.1906947 77.8453633,73.1557285 C77.850571,73.1565609 77.8550348,73.1557285 77.8602425,73.1557285 C77.8639623,73.1557285 77.86917,73.1565609 77.8736338,73.1557285 C81.1686386,73.1906947 84.4576918,72.1245981 86.9030928,69.8451005 C89.6750928,67.2620667 91.1630155,63.5370522 91.1764068,59.7703758 C91.1764068,59.7651681 91.249315,38.997487 91.249315,38.997487 L88.303972,34.1981923 Z" id="Fill-16" fill="#E8364B" mask="url(#mask-6)"></path>
                    <path d="M66.6933082,37.7214444 C66.6933082,37.7214444 81.8693758,43.0958213 90.3125932,37.749715 C98.7558106,32.4050966 81.0889604,26.4846522 81.0889604,26.4846522 L73.2528155,28.6101498 L68.4542647,32.6193575 L66.6933082,35.7767295 L66.6933082,37.7214444 Z" id="Fill-17" fill="#E8364B" mask="url(#mask-6)"></path>
                    <path d="M71.1861652,43.6709778 C68.3427449,43.6709778 66.0290251,45.9846976 66.0290251,48.8281179 C66.0290251,51.6715382 68.3427449,53.984514 71.1861652,53.984514 C74.0288415,53.984514 76.3433053,51.6715382 76.3433053,48.8281179 C76.3433053,45.9846976 74.0288415,43.6709778 71.1861652,43.6709778 M71.1861652,54.7493063 C67.9209188,54.7493063 65.2649768,52.0926203 65.2649768,48.8281179 C65.2649768,45.5636155 67.9209188,42.9076734 71.1861652,42.9076734 C74.4506676,42.9076734 77.1073536,45.5636155 77.1073536,48.8281179 C77.1073536,52.0926203 74.4506676,54.7493063 71.1861652,54.7493063" id="Fill-18" fill="#FFFFFF" mask="url(#mask-6)"></path>
                    <path d="M84.4691488,43.6709778 C81.6264725,43.6709778 79.3120087,45.9846976 79.3120087,48.8281179 C79.3120087,51.6715382 81.6264725,53.984514 84.4691488,53.984514 C87.3125691,53.984514 89.6262889,51.6715382 89.6262889,48.8281179 C89.6262889,45.9846976 87.3125691,43.6709778 84.4691488,43.6709778 M84.4691488,54.7493063 C81.2046464,54.7493063 78.5487043,52.0926203 78.5487043,48.8281179 C78.5487043,45.5636155 81.2046464,42.9076734 84.4691488,42.9076734 C87.7343952,42.9076734 90.3903372,45.5636155 90.3903372,48.8281179 C90.3903372,52.0926203 87.7343952,54.7493063 84.4691488,54.7493063" id="Fill-19" fill="#FFFFFF" mask="url(#mask-6)"></path>
                    <path d="M79.452543,46.5291285 C78.2904754,46.0262106 77.2563691,46.0224908 76.2899633,46.5179691 L75.9410454,45.8379884 C77.1083208,45.2405874 78.3916541,45.2368676 79.7560792,45.8275729 L79.452543,46.5291285 Z" id="Fill-20" fill="#FFFFFF" mask="url(#mask-6)"></path>
                    <path d="M67.4307227,37.9641246 C67.4307227,37.9641246 74.9610995,42.4368203 82.2057952,41.0738831 C82.2057952,41.0738831 78.3796019,41.114801 76.6744425,39.1254483 C75.9818145,38.2341826 67.4307227,37.9641246 67.4307227,37.9641246" id="Fill-21" fill="#E8364B" mask="url(#mask-6)"></path>
                    <path d="M113.99876,88.6290831 C110.363021,76.8581266 101.10219,76.7718271 101.10219,76.7718271 L88.1185768,74.4343005 C80.9014077,79.5371314 73.92677,79.371228 67.171601,74.4343005 L54.1879874,76.7718271 C48.1068473,78.1637787 42.4981227,82.9958077 40.3666734,88.4936821 L34.5444319,105.338455 L51.5052628,110.961315 L54.1039198,134.829827 L51.886171,160.64603 C51.886171,160.64603 78.7379681,164.10545 102.02619,160.64603 L100.736905,134.24061 L101.44962,111.021576 L119.451997,105.767721 C119.451997,105.767721 117.6345,100.400784 113.99876,88.6290831" id="Fill-22" fill="#9E223E" mask="url(#mask-6)"></path>
                    <path d="M67.1698899,132.03893 L67.1505469,132.01438 C66.6885469,131.431858 66.7867498,130.576302 67.3707594,130.114302 L73.2964116,125.418418 C73.8796773,124.955674 74.7344889,125.055365 75.1964889,125.637887 L75.2158319,125.663182 C75.6785758,126.245703 75.578885,127.100515 74.9963633,127.562515 L69.0699671,132.259143 C68.4874454,132.721143 67.6318899,132.621452 67.1698899,132.03893" id="Fill-23" fill="#F5C7A3" mask="url(#mask-6)"></path>
                    <polygon id="Fill-24" fill="#E8364B" mask="url(#mask-6)" points="38.7380676 130.146367 115.18828 130.146367 115.18828 82.9851691 38.7380676 82.9851691"></polygon>
                    <path d="M77.346314,118.1703 L77.115686,118.279663 L76.8858019,118.1703 C74.8190773,117.183064 73.0767198,115.78516 71.7011353,114.016764 C71.7033671,113.941624 71.6765845,113.860532 71.609628,113.773489 C70.5167488,112.347315 69.6634251,110.681586 69.0719758,108.82317 C68.0698599,105.672494 68.1672851,103.070861 68.1717826,102.962243 L68.1896377,102.546368 L68.6412222,102.500243 C71.0553768,102.252503 73.1295411,101.353054 74.4448647,100.641083 C75.8516957,99.8792667 76.7325459,99.1516725 76.7712319,99.1204261 L77.11643,98.8280493 L77.4638599,99.121914 C77.5568551,99.198542 78.4101787,99.8956338 79.7872512,100.641083 C81.1018309,101.353054 83.1752512,102.252503 85.5908937,102.500243 L86.0424783,102.546368 L86.0603333,102.962243 C86.0648309,103.070861 86.162256,105.672494 85.1601401,108.82317 C84.5694348,110.681586 83.7153671,112.347315 82.6224879,113.773489 C82.5540435,113.86202 82.5257729,113.9446 82.5265169,114.022716 C81.1516763,115.788136 79.4108068,117.184552 77.346314,118.1703 M88.7385942,109.422059 C88.7385942,106.5526 88.4826715,103.945015 87.973058,101.654358 C86.4940628,95.0070638 82.871715,91.0224068 77.115686,91.0224068 C71.4258696,91.0224068 67.8206329,94.9177884 66.3103913,101.428938 C65.7665556,103.773904 65.4942657,106.458861 65.4942657,109.422059 C65.4942657,110.724735 65.564942,111.999141 65.699599,113.233373 C65.7174541,113.228909 65.7353092,113.223701 65.7524203,113.219238 C65.7524203,113.231141 65.7494444,113.244532 65.7494444,113.25718 C65.7494444,114.708648 70.3731643,114.980938 71.4705072,114.32402 C72.8706425,116.1006 74.6353188,117.509663 76.7251063,118.507315 L77.115686,118.694049 L77.5077536,118.507315 C79.5878696,117.514127 81.3465942,116.111759 82.7444976,114.345595 C83.7867874,115.038967 88.2088937,114.892407 88.4953188,113.545837 C88.5161498,113.45061 88.5295411,113.354639 88.5295411,113.25718 L88.5295411,113.25718 C88.66643,112.015508 88.7385942,110.733663 88.7385942,109.422059" id="Fill-25" fill="#FFFFFF" mask="url(#mask-6)"></path>
                    <path d="M74.5942522,126.005106 L42.4952957,129.173638 C31.458629,130.478546 29.7795082,145.190382 40.4806483,145.657589 L74.5801169,137.052932 C75.8612184,133.429097 75.8857691,129.817164 74.5942522,126.005106" id="Fill-26" fill="#F5C7A3" mask="url(#mask-6)"></path>
                    <path d="M79.9312821,126.005106 L112.030239,129.173638 C123.066905,130.478546 124.745282,145.190382 114.044886,145.657589 L79.9454174,137.052932 C78.6643159,133.429097 78.6397652,129.817164 79.9312821,126.005106" id="Fill-27" fill="#F5C7A3" mask="url(#mask-6)"></path>
                    <path d="M81.0095053,131.704743 C81.0095053,136.174463 77.3864135,139.797555 72.9166937,139.797555 C68.4477179,139.797555 64.8246261,136.174463 64.8246261,131.704743 C64.8246261,127.235023 68.4477179,123.611931 72.9166937,123.611931 C77.3864135,123.611931 81.0095053,127.235023 81.0095053,131.704743" id="Fill-28" fill="#F5C7A3" mask="url(#mask-6)"></path>
                    <path d="M89.1022425,131.704743 C89.1022425,136.174463 85.4791507,139.797555 81.0094309,139.797555 C76.5397111,139.797555 72.9166193,136.174463 72.9166193,131.704743 C72.9166193,127.235023 76.5397111,123.611931 81.0094309,123.611931 C85.4791507,123.611931 89.1022425,127.235023 89.1022425,131.704743" id="Fill-29" fill="#F5C7A3" mask="url(#mask-6)"></path>
                </g>
                <path d="M2,78.0003724 C2,36.0270942 36.0261827,2 78,2 C119.973073,2 154,36.0270942 154,78.0003724 C154,119.973651 119.973073,154 78,154 C36.0261827,154 2,119.973651 2,78.0003724 Z" id="Stroke-31" stroke="#E9364B" stroke-width="5"></path>
            </g>
        </g>
    </g>
</svg>
